X:1
T:LaPoule
T:La Poule
T:Suite en Sol Nr 5
T:Jean-Philippe Rameau
C:Jean-Philippe Rameau
%%score { ( 1 3 5 ) | ( 2 4 ) }
L:1/8
M:3/4
K:Bb
V:1 treble nm="Piano"
V:3 treble 
V:5 treble 
V:2 bass 
V:4 bass 
V:1
 z[Q:1/4=110] GGGGG | G/4B/4d/ GGGGG | G/4B/4d/4g/4 z z2 z d | eeeee3/2 (3g/4a/4c'/4 | %4
w: co co co co co|co co dai * * * * *|||
 ccccc3/2(3e/4^f/4a/4 | AedcPBA | AB/4A/4B/4A/4 BA G2 | e2 e3 g/^c/ | (^c2 d2) z2 | d2 d3 f/=B/ | %10
w: ||||||
 =B2 c2 z2 | cedcPBA | B/A/B/d/ B/A/B/d/ A/G/A/c/ | B/A/B/d/ B/A/B/d/ A/G/A/c/ | B/A/B/c/ BdPcB | %15
w: |||||
{B} TA4 z2 | z =FFFFF | F/4B/4d/ FFFFF | F/4B/4d/4f/4 z z2 z2 | GGGGG3/2(3B/4e/4g/4 | %20
w: |||||
 FFFFF3/2(3B/4d/4f/4 | GGGGG3/2(3B/4e/4g/4 | FFFFF3/2(3B/4d/4f/4 | Ec/B/ AGFE |{F} TE2 D2 z2 | %25
w: |||||
 GGGGG{B}TA({GA)} | B/F/E/D/ [DF]/ D/C/B,/ [B,D]/ D/C/B,/ | GGGGG{B}TA({GA)} | %28
w: |||
 B/F/E/D/ [DF]/ D/C/B,/ [B,D]/ D/C/B,/ | GGGGG{B}TA({GA)} | BF ([Fd]4 | [GB]>)c{B} TA2 z B | %32
w: ||||
 BBBBBB | B/4d/4f/ BBBBB | B/4d/4f/4b/4-b- b2 _a2 | (_a Tg2-) g f2 | (f Te2) d c2 | z ccccc | %38
w: ||||||
 c/4e/4g/ ccccc | c/4e/4g/4c'/4-c'- c'2 b2 | (b Ta2-) a g2 | (g T^f2) =e d2 | z AAAAA | %43
w: |||||
 B/A/B/c/ d d2 Pc/B/ | A/G/A/B/ c c2 PB/A/ | B/A/B/c/ d d2 Pc/B/ |{B} T[^FA]4 z2 | %47
w: ||||
 B/A/B/d/ B/A/B/d/ =B/A/B/d/ | c/=B/c/e/ c/B/c/e/ ^c/B/c/=e/ | d/^c/d/f/ d/c/d/f/ =e/d/e/g/ | %50
w: |||
 fg/4f/4=e/4f/4 gfPed |{d} Tc3 =B A2 | z =EEEEE | =E/4G/4A/4^c/4 z z2 z2 | z GGGGG | %55
w: |||||
 (3G/A/^c/=e- e4- | =e4- e/4d/4^c/4=B/4A/4G/4F/4=E/4 | FA d3 ^c | [G^c]2 z/ A/-^F/-D/- [DFA]2 :| %59
w: ||||
 z DDDDD | D/4F/4A/ DDDDD | D/F/A/d/ FFFF | A/4d/4f/4a/4 AAAAA | (3d/f/a/d'- d'2- d'/c'/b/a/ | %64
w: |||||
 b/c'/a/b/ g/a/f/g/ =e/f/d/e/ | ^c/d/=B/c/ A/_B/G/A/ F/G/=E/G/ | F=EFEF{A}G({FG)} | [^C=EA]6 | %68
w: ||||
 fffffg/a/ |{g} Tf3 =e f z | ggggga/_b/ |{a} Tg3 fga | b3{c'} Tb({ab)}c'b |{b} Ta3 g/a/ b/c'/a/b/ | %74
w: ||||||
{a} Tg3 (3a/b/c'/ =ef |{a} Tg4 z2 | ddddd{f}T=e({de)} | f/A/G/F/ [Ac]/ A/G/F/ [FA]/ A/G/F/ | %78
w: ||||
 ddddd{f}T=e({de)} | f/A/G/F/ [Ac]/ A/G/F/ [FA]/ A/G/F/ | ddddde/f/ |{c} T=B6 | %82
w: ||||
 c/=B/c/e/ c/B/c/e/ c/B/c/e/ | A/G/A/c/ A/G/A/c/ A/G/A/c/ | B/A/B/d/ B/A/B/d/ B/A/B/d/ | %85
w: |||
 G/^F/G/B/ G/F/G/B/ G/F/G/B/ | A/G/A/c/ A/G/A/c/ A/G/A/c/ |{G} T^F4 z2 | eeeed{g}T^f | %89
w: ||||
 g/d/c/B/ [Bd]/ B/A/G/ [GB]/ B/A/G/ | eeeed{g}T^f | g/d/c/B/ [Bd]/ B/A/G/ [GB]/ B/A/G/ | cccccc | %93
w: ||||
 c/ e/d/c/ [Ac]/ c/B/A/ [D^FA]/ c/B/A/ | Bd c/B/ A/G/ B/A/ G/^F/ | G2 z2 z2 | z GGGGG | %97
w: ||||
 G/4B/4d/4g/4 z z2 z2 | [GBeg][GBeg][GBeg][GBeg] [G=Bdf][GBdf] | %99
w: ||
 [Gce][Gce][Gce][Gce] [DGBd][DGBd] | [D^FAc][DFAc][DFAc][DFAc] [DGB][DGB] | %101
w: ||
 [CD^FA][CDFA][CDFA][CDFA] [B,DG][B,DG] |{G} T[D^F]4 z2 | z AAAAA | A/4c/4d/4^f/4 z z2 z2 | %105
w: ||||
 z ccccc | (3c/d/^f/a- a4- | a4- a/4g/4^f/4=e/4d/4c/4B/4A/4 | Bd g3{g} T[c^f] | ([c^f]2 g4) |] %110
w: |||||
V:2
 z6 | z6 | z [G,B,][G,B,][G,B,][G,B,][G,B,] | [G,C][G,C][G,C][G,C][G,C][G,C] | %4
 [G,A,][G,A,] [G,A,][G,A,] [G,A,][G,A,] | [^F,A,C][F,A,C] [F,A,D][F,A,D] [F,A,D][F,A,D] | %6
 [G,-D]4 [G,,G,]2 | z6 | z6 | x6 | x6 | x6 | x6 | x6 | x6 | x6 | z6 | z6 | %18
 z [B,D][B,D][B,D][B,D][B,D] | [B,E][B,E][B,E][B,E][B,E][B,E] | [B,D][B,D][B,D][B,D][B,D][B,D] | %21
 [B,E][B,E][B,E][B,E][B,E][B,E] | [B,D][B,D][B,D][B,D][B,D][B,D] | [B,C][B,C][A,C][A,C][A,C][A,C] | %24
 B,4 z2 | [E,B,][E,B,][E,B,][E,B,][E,B,][E,C] | [D,D]/ z/ z x4 | %27
 [E,B,][E,B,][E,B,][E,B,][E,B,][E,C] | [D,D]/ z/ z x4 | [E,B,][E,B,][E,B,][E,B,][E,B,][E,C] | %30
 D2 z2 z2 | E,C, F,4 | [B,,,B,,]4 z2 | z6 | z [B,,D,F,][B,,D,F,][B,,D,F,][B,,D,F,][B,,D,F,] | %35
 [=B,,D,G,][B,,D,G,][B,,D,G,][B,,D,G,][B,,D,G,][B,,D,G,] | [C,E,G,]C,C,C,C,C, | %37
 C,/4E,/4G,/4C/4 z z2 z2 | z6 | z [C,E,G,][C,E,G,][C,E,G,][C,E,G,][C,E,G,] | %40
 [^C,=E,A,][C,E,A,][C,E,A,][C,E,A,][C,E,A,][C,E,A,] | [D,^F,A,]D,D,D,D,D, | %42
 B,,/4^F,/4A,/4D/4 z z2 z D | x6 | x6 | x6 | x6 | x6 | x6 | x6 | x6 | x6 | %52
 A,,/4^C,/4=E,/4A,/4 z z2 z2 | z A,,A,,A,,A,,A,, | (5:4:5A,,/4^C,/4=E,/4A,/4^C/4 z z2 z2 | %55
 z A,,A,,A,,A,,A,, | (7:4:7A,,/^C,/=E,/A,/[I:staff -1]^C/=E/G/- G2- G[I:staff +1]^C | D=CB,A,G,A, | %58
 D,4- D,/A,,/^F,,/D,,/ :| z6 | z6 | z [D,F,A,][D,F,A,][D,F,A,][D,F,A,][D,F,A,] | %62
 [D,F,A,][D,F,A,][D,F,A,][D,F,A,][D,F,A,][D,F,A,] | (3D,/A,,/F,,/D,,- D,,4 | x6 | z2 ^C3 A, | %66
 D^CDCDB, | A,=E,^C,A,,A,,, z | z6 | z6 | z6 | z6 | z6 | z6 | z6 | z6 | B,B,B,B,B,B, | A, z x4 | %78
 B,B,B,B,B,B, | A, z x4 | [B,F][B,F] [B,F][B,F] [_A,F][A,F] | [G,DF]6 | %82
 [G,CE][G,CE][G,CE][G,CE][G,CE][G,CE] | [^F,CE][F,CE][F,CE][F,CE][F,CE][F,CE] | %84
 [=F,B,D][F,B,D][F,B,D][F,B,D][F,B,D][F,B,D] | [=E,B,D][E,B,D][E,B,D][E,B,D][E,B,D][E,B,D] | %86
 [_E,A,C][E,A,C][E,A,C][E,A,C][E,A,C][E,A,C] | [D,A,D]4 z2 | z6 | z6 | z6 | z6 | z6 | z6 | z6 | %95
 G,G,,G,,G,,G,,G,, | G,,/4B,,/4D,/4G,/4 z z2 z2 | z G,G,G,G,3/2(3A,/4B,/4D/4 | %98
 E,3 (3F,/G,/B,/ D,3/2(3F,/4G,/4=B,/4 | C,3 (3E,/G,/C/ B,,3/2(3C,/4D,/4G,/4 | %100
 A,,3 (3C,/D,/^F,/ G,,3/2(3B,,/4D,/4G,/4 | ^F,,3 (3G,,/A,,/D,/ G,,3/2(3A,,/4B,,/4D,/4 | A,4 x2 | %103
 D,/4^F,/4A,/4D/4 z z2 z2 | z D,D,D,D,D, | %105
 (5:4:5D,/4^F,/4A,/4[I:staff -1]D/4^F/4[I:staff +1] z z2 z2 | z D,D,D,D,D, | %107
 (7:4:7D,/^F,/A,/[I:staff -1]D/^F/A/c/- c2- cF |[I:staff +1] z6 | %109
 G,4- (6:4:6G,/D,/B,,/G,,/D,,/G,,,/ |] %110
V:3
 x6 | x6 | x6 | x6 | x6 | x6 | x6 | [GB][GB][GB][GB][GB][GB] | [^FA][FA][FA][FA][FA][FA] | %9
 [=FA][FA][FA][FA][FA][FA] | [=EG][EG][EG][EG][EG][EG] | [^FA][FA][FA][FA]FF | %12
 G2[I:staff +1] G,[I:staff -1]G ^FD | G2[I:staff +1] G,[I:staff -1]G ^FD | %14
 G2[I:staff +1] G,[I:staff -1]BAG | D>[I:staff +1]A, ^F,/D,/A,,/D,,/[I:staff -1] z2 | x6 | x6 | %18
 x6 | x6 | x6 | x6 | x6 | x6 | x6 | x6 | x6 | x6 | x6 | x6 | z2 D4 | C2 z2 x E | [DF] z z2 z2 | %33
 x6 | x6 | x6 | x6 | x6 | x6 | x6 | x6 | x6 | x6 | G/^F/G/A/ BBBA/G/ | ^F/D/F/G/ AAAG/F/ | %45
 G/^F/G/A/ BBBA/G/ | D4 z2 | GG GG DF | EG EG =EG | FA FD[I:staff +1] ^CA, |[I:staff -1] Dd GABG | %51
 A[I:staff +1]A,,A,,A,,A,,A,, | x6 | x6 | x6 | x6 | x6 |[I:staff -1] F3 F=EG | x6 :| x6 | x6 | x6 | %62
 x6 | z2 z2 z D | GA B3 G | A=E x4 | x6 | x6 | [Ac][Ac][Ac][Ac][Ac][Ac] | %69
 [Bd][Bd][Bd][Bd][Bd][Bd] | [=Bd][Bd][Bd][Bd][Bd][Bd] | [c=e][ce][ce][ce][ce][ce] | %72
 [df][df][df][df][=eg][eg] | f3 =e[df][ce] | [Bd]3 [Ac][GB][FA] | =E4 z2 | F F F F F G | A x5 | %78
 F F F F F G | A x5 | x6 | x6 | x6 | x6 | x6 | x6 | x6 | x6 | [CG][CG][CG][CG][CA][CA] | %89
 [B,B] z x4 | [CG][CG][CG][CG][CA][CA] | [B,B] x5 | [EG][EG][EG][EG][EG][EG] | [D^F] z x4 | %94
 GBGECD | x6 | x6 | x6 | x6 | x6 | x6 | x6 | x6 | x6 | x6 | x6 | x6 | x6 | G=FE[DB][CA]D | %109
 x2 z/ d/-B/-G/- [GBd]2 |] %110
V:4
 x6 | x6 | x6 | x6 | x6 | x6 | x6 | x6 | x6 | x6 | x6 | x6 | x6 | x6 | x6 | x6 | x6 | x6 | x6 | %19
 x6 | x6 | x6 | x6 | x6 | z2 B,,2 z2 | x6 | x6 | x6 | x6 | x6 | D,3 C,D,B,, | x2 z2 F,,2 | x6 | %33
 x6 | x6 | x6 | x6 | x6 | x6 | x6 | x6 | x6 | x6 | x6 | x6 | x6 | x6 | x6 | x6 | x6 | x6 | x6 | %52
 x6 | x6 | x6 | x6 | x6 | x6 | x6 :| x6 | x6 | x6 | x6 | x6 | x6 | x6 | x6 | x6 | x6 | x6 | x6 | %71
 x6 | x6 | x6 | x6 | x6 | x6 | x6 | x6 | x6 | x6 | x6 | x6 | x6 | x6 | x6 | x6 | x6 | x6 | x6 | %90
 x6 | x6 | x6 | x6 | x6 | x6 | x6 | x6 | x6 | x6 | x6 | x6 | D,,D,D,D,D,D, | x6 | x6 | x6 | x6 | %107
 x6 | x6 | x6 |] %110
V:5
 x6 | x6 | x6 | x6 | x6 | x6 | x6 | x6 | x6 | x6 | x6 | x6 | x6 | x6 | x6 | x6 | x6 | x6 | x6 | %19
 x6 | x6 | x6 | x6 | x6 | x6 | x6 | x6 | x6 | x6 | x6 | x6 | x6 | x6 | x6 | x6 | x6 | x6 | x6 | %38
 x6 | x6 | x6 | x6 | x6 | x6 | x6 | x6 | x6 | x6 | x6 | x6 | x6 | x6 | x6 | x6 | x6 | x6 | x6 | %57
 x6 | x2 d4 :| x6 | x6 | x6 | x6 | x6 | x6 | x6 | x6 | x6 | x6 | x6 | x6 | x6 | x6 | x6 | x6 | %75
 C4 z2 | x6 | x6 | x6 | x6 | x6 | x6 | x6 | x6 | x6 | x6 | x6 | x6 | x6 | x6 | x6 | x6 | x6 | x6 | %94
 x6 | x6 | x6 | x6 | x6 | x6 | x6 | x6 | x6 | x6 | x6 | x6 | x6 | x6 | x6 | x6 |] %110

